!! 00000] TT[WS
!!!OTL: Hao nanren lun buzai wuo toushang
!!!ARE: Asia, China,ÿShanxi Ningwu
!! Ethnic Group: Han
!! WI, 90 (1)
!!!SCT: J0106
!!!YEM: Copyright 1995, estate of Helmut Schaffrath.
**kern
*ICvox
*Ivox
*M2/4
*k[f#c#]
*D:
{8dd
8ee
8ff#
16ee
16dd
=1
8b
16a
16f#
4e
=2
8dd
8ee
8ff#
16ee
16dd
=3
2b}
=4
{8dd
8ee
8ff#
16ee
16dd
=5
8b
16a
16f#
4e
=6
8a
8dd
8b
16a
16f#
=7
2a}
==
!!!AGN: Xiaodiao. Qingge, Aisu
!!!ONB: ESAC (Essen Associative Code) Database: CHINA
!!!AMT: simple duple
!!!AIN: vox
!!!EED: Helmut Schaffrath
!!!EEV: 1.0
*-
